packages/core/src/svgs/tokens/branded/BS.svg

<svg width="24" height="24" viewBox="0 0 24 24" fill="none" xmlns="http://www.w3.org/2000/svg">
<path fill-rule="evenodd" clip-rule="evenodd" d="M22 12C22 13.3132 21.7414 14.6136 21.2388 15.8269C20.7362 17.0401 19.9997 18.1425 19.071 19.0711C18.1425 19.9997 17.0401 20.7362 15.8268 21.2388C14.6136 21.7414 13.3133 22 12 22C10.6868 22 9.38643 21.7414 8.17317 21.2388C6.95992 20.7362 5.85752 19.9997 4.92893 19.0711C4.00035 18.1425 3.26376 17.0401 2.76121 15.8269C2.25866 14.6136 2 13.3132 2 12C2 9.34784 3.05358 6.80431 4.92893 4.92894C6.80429 3.05358 9.34784 2 12 2C14.6522 2 17.1957 3.05358 19.071 4.92894C20.9465 6.80431 22 9.34784 22 12ZM20.8889 12C20.8891 13.5627 20.4774 15.0979 19.6951 16.4507C18.9129 17.8035 17.7878 18.9262 16.4333 19.7055C16.1445 19.75 15.8334 19.7777 15.5056 19.7777C12.1723 19.7777 10.4 15.2445 9.89998 13.9723C9.8445 13.8167 9.80004 13.7111 9.77774 13.6666C9.07223 16.1 9.63891 17.7499 9.77774 18.1111C8.96111 17.3889 8.11112 15.7833 8.11112 13.7389C8.11886 12.5159 8.5072 11.3256 9.22222 10.3333C9.1889 10.4611 9.20001 10.6667 9.21112 10.8722L9.22222 11.1667C9.22222 12.9666 10.9388 13.6666 11.7555 13.6666C12.1667 13.6666 12.6499 13.6111 13.1389 13.5555C13.6222 13.4945 14.1056 13.4333 14.5166 13.4333C15.3111 13.4333 15.4389 13.4612 16.1944 13.6167L16.2612 13.6277C14.8 13.7111 14.0111 13.9611 13.3334 14.1833C15.4166 14.9278 16.5388 16.1944 16.8445 16.5389L16.9111 16.6112L16.9945 16.6999C17.1111 16.8389 17.2556 17 17.5333 17C17.8666 17 18.2667 16.9444 18.4889 16.6445C18.6723 16.4 18.8833 16.3 18.9667 16.2833C19.0167 16.0777 19.1334 15.5333 19.2222 14.9555C18.4444 13.1277 15.75 10.7111 15.35 10.3445L15.3333 10.3333C15.6111 10.3333 16.2056 10.3333 16.9666 11.4166C17.5778 12.2778 17.9334 12.5388 18.1111 12.5556C17.8222 12.25 17.3333 11.4222 17.0833 10.5555C16.7315 9.59767 16.1267 8.75294 15.3333 8.11112C15.3333 7.14446 16.3334 6.3889 16.8445 6.00556L17.0001 5.88889C15.6111 5.88889 13.8222 6.55556 13.1112 7.00001C12.5945 6.83334 11.1777 6.44446 9.86667 6.44446C6.7389 6.44446 4.53334 8.17779 3.48889 9.4333C3.72506 8.64883 4.0691 7.90094 4.51112 7.21111C6.40001 6.30556 8.34445 5.88889 9.2389 5.88889C9.86667 5.88889 10.5222 6.06668 11.1389 6.23334C11.4389 6.31112 11.7278 6.3889 12 6.44446C12.4992 6.09013 13.0668 5.84412 13.6666 5.72222C13.0611 5.2889 11.2778 4.77778 9.51666 4.77778C8.12223 4.77778 6.50556 5.27779 5.90556 5.52778C7.16894 4.33786 8.75303 3.54381 10.4624 3.2436C12.1717 2.94339 13.9316 3.15015 15.5249 3.83837C17.1181 4.52659 18.475 5.66616 19.4283 7.11649C20.3814 8.56683 20.8892 10.2645 20.8889 12ZM3.66667 15.2112C4.26666 16.8222 5.11111 18.2056 6.44444 19.2223C5.94445 18.4667 5.33334 16.7278 5.33334 14.9278C5.33334 12.5388 6.04444 10.9444 7.00001 9.77773C6.70556 9.88895 4.05 11.2166 3.67778 15.0889L3.66667 15.2112Z" fill="#181B1E"/>
</svg>

<svg xmlns="http://www.w3.org/2000/svg" width="24" height="24" fill="none" viewBox="0 0 24 24">
    <path fill="#181B1E" fill-rule="evenodd" d="M22 12a10 10 0 1 1-20 0 10 10 0 0 1 20 0m-1.111 0a8.89 8.89 0 0 1-4.456 7.706 6 6 0 0 1-.927.072c-3.334 0-5.106-4.533-5.606-5.806a3 3 0 0 0-.122-.305c-.706 2.433-.14 4.083 0 4.444-.817-.722-1.667-2.328-1.667-4.372a5.9 5.9 0 0 1 1.111-3.406c-.033.128-.022.334-.01.54l.01.294c0 1.8 1.717 2.5 2.534 2.5.41 0 .894-.056 1.383-.111.483-.061.967-.123 1.378-.123.794 0 .922.028 1.677.184l.067.01c-1.461.084-2.25.334-2.928.556 2.084.745 3.206 2.011 3.512 2.356l.066.072.083.089c.117.139.262.3.54.3.333 0 .733-.056.955-.355.183-.245.394-.345.478-.362.05-.205.166-.75.255-1.328-.778-1.827-3.472-4.244-3.872-4.61l-.017-.012c.278 0 .873 0 1.634 1.084.61.86.966 1.122 1.144 1.139-.289-.306-.778-1.134-1.028-2a5.65 5.65 0 0 0-1.75-2.445c0-.967 1-1.722 1.511-2.105L17 5.889c-1.389 0-3.178.667-3.889 1.111-.517-.167-1.933-.556-3.244-.556-3.128 0-5.334 1.734-6.378 2.99A9 9 0 0 1 4.51 7.21c1.89-.904 3.834-1.32 4.73-1.32.628 0 1.283.178 1.9.344.3.078.589.156.861.211a4.4 4.4 0 0 1 1.667-.722c-.606-.433-2.39-.944-4.15-.944-1.395 0-3.011.5-3.611.75A8.889 8.889 0 0 1 20.889 12M3.667 15.211c.6 1.611 1.444 2.995 2.777 4.011-.5-.755-1.11-2.494-1.11-4.294 0-2.39.71-3.984 1.666-5.15-.294.11-2.95 1.439-3.322 5.31z" clip-rule="evenodd"/>
</svg>
